!!! OTL: Berkowitz33
!!! Chapter: 1
!!! Section: I
!!! Page: 10
!!! Mode: 
!!! Encoder: DJB
**kern
*staff1
*I"Piano
=1-
*clefG2
*k[b-]
*F:
*met(c|)
*M2/2
2f/
2cc\
=2
4a/
4b-\
2cc\
=3
4dd\
4cc\
4b-\
4a/
=4
2a/
2g/
=5
4.cc\
8b-\
4a/
4cc\
=6
4.b-\
8a/
4g/
4b-\
=7
4.a/
8g/
4f/
4a/
=8
4g/
4e/
2f/
==
*-
